X:1021
T:Bourree 2
T:Tune
C:Andrew Swaine
M:2/4
L:1/8
K:C
P:A
"Am"e>d ce|"Em"d>c Bd|"Am"c>d cB|A4|\
"D"A>B c/2B/2A|"G"Bc d2|"Bm7"d>c d^d|"E7"e4:|
P:B
|:"Dm"f>e df|"E7"^ge- ed|"Am"c>B cd|"Em7"e4|\
"F"A>B ce|"G"d>c Bd|"Am"cA AG|1Ae ee:|2A4||
T:Harmony
P:A
"Am".A2 .A2|"Em"(3G2F2E2|"Am"^D2 E2|A4|\
"D"D>E ^FD|"G"G2 zG|"Bm7"A2 ^A2|1"E7"B2 ^G2:|2"E7"B2 e2||
P:B
|:"Dm"d>c BA|"E7"^G2 zG|"Am"A>G FE|"Em7"E2 zE|\
"F"D>E FA|"G"G>A Bd|"Am".c2 .B2|A4:|


%%newpage
%%textfont * 20
%%text S4 (1.0)
%%textfont * 12



